fa/svgs/regular/calendar-plus.svg

<svg xmlns="http://www.w3.org/2000/svg" viewBox="0 0 448 512"><!--! Font Awesome Free 6.1.1 by @fontawesome - https://fontawesome.com License - https://fontawesome.com/license/free (Icons: CC BY 4.0, Fonts: SIL OFL 1.1, Code: MIT License) Copyright 2022 Fonticons, Inc.--><path d="M224 232c13.3 0 24 10.7 24 24v48h48c13.3 0 24 10.7 24 24s-10.7 24-24 24h-48v48c0 13.3-10.7 24-24 24s-24-10.7-24-24v-48h-48c-13.3 0-24-10.7-24-24s10.7-24 24-24h48v-48c0-13.3 10.7-24 24-24zM152 64h144V24c0-13.25 10.7-24 24-24s24 10.75 24 24v40h40c35.3 0 64 28.65 64 64v320c0 35.3-28.7 64-64 64H64c-35.35 0-64-28.7-64-64V128c0-35.35 28.65-64 64-64h40V24c0-13.25 10.7-24 24-24s24 10.75 24 24v40zM48 448c0 8.8 7.16 16 16 16h320c8.8 0 16-7.2 16-16V192H48v256z"/></svg>

<svg xmlns="http://www.w3.org/2000/svg" viewBox="0 0 448 512"><!--! Font Awesome Free 6.2.1 by @fontawesome - https://fontawesome.com License - https://fontawesome.com/license/free (Icons: CC BY 4.0, Fonts: SIL OFL 1.1, Code: MIT License) Copyright 2022 Fonticons, Inc. --><path d="M224 232C237.3 232 248 242.7 248 256V304H296C309.3 304 320 314.7 320 328C320 341.3 309.3 352 296 352H248V400C248 413.3 237.3 424 224 424C210.7 424 200 413.3 200 400V352H152C138.7 352 128 341.3 128 328C128 314.7 138.7 304 152 304H200V256C200 242.7 210.7 232 224 232zM152 64H296V24C296 10.75 306.7 0 320 0C333.3 0 344 10.75 344 24V64H384C419.3 64 448 92.65 448 128V448C448 483.3 419.3 512 384 512H64C28.65 512 0 483.3 0 448V128C0 92.65 28.65 64 64 64H104V24C104 10.75 114.7 0 128 0C141.3 0 152 10.75 152 24V64zM48 448C48 456.8 55.16 464 64 464H384C392.8 464 400 456.8 400 448V192H48V448z"/></svg>
